src/main/content/img/IBM_logo.svg

<svg xmlns="http://www.w3.org/2000/svg" width="173" height="69.2" viewBox="280.5 362.2 173 69.2"><path d="M280.5 362.2v4.7h33.7v-4.7h-33.7zm38.4 0v4.7h48s-4.9-4.7-11.4-4.7h-36.6zm57.4 0v4.7h29l-1.7-4.7h-27.3zm49.9 0l-1.7 4.7h28.8v-4.7h-27.1zm-145.7 9.2v4.7h33.7v-4.7h-33.7zm38.4.1v4.7h53.6s-.6-3.6-1.7-4.7h-51.9zm57.4 0v4.7h32.2l-1.6-4.7h-30.6zm46.4 0l-1.6 4.7h32.1v-4.7h-30.5zm-132.5 9.2v4.7h14.6v-4.7h-14.6zm38.4 0v4.7h14.6v-4.7h-14.6zm28.8 0v4.7H372s.9-2.5.9-4.7h-15.5zm28.6 0v4.7h25.9l-1.7-4.7H386zm33.6 0l-1.7 4.7h26v-4.7h-24.3zm-129.4 9.2v4.7h14.6v-4.7h-14.6zm38.4 0v4.7h37.2s3.1-2.4 4.1-4.7h-41.3zm57.4 0v4.7h14.6V392l.9 2.6h26.7l1-2.6v2.6h14.6v-4.7h-27.4l-1.5 4-1.5-4H386zm-95.8 9.2v4.7h14.6v-4.7h-14.6zm38.4 0v4.7H370c-1-2.3-4.1-4.7-4.1-4.7h-37.3zm57.4 0v4.7h14.6v-4.7H386zm17.3 0l1.8 4.7h20l1.7-4.7h-23.5zm25.9 0v4.7h14.6v-4.7h-14.6zm-139 9.2v4.7h14.6v-4.7h-14.6zm38.4 0v4.7h14.6v-4.7h-14.6zm28.8 0v4.7h15.5c0-2.2-.9-4.7-.9-4.7h-14.6zm28.6 0v4.7h14.6v-4.7H386zm20.6 0l1.7 4.7h13.4l1.7-4.7h-16.8zm22.6 0v4.7h14.6v-4.7h-14.6zm-148.4 9.2v4.7h33.7v-4.7h-33.7zm38.1 0v4.7h51.8c1.1-1.1 1.7-4.7 1.7-4.7h-53.5zm57.7 0v4.7h24v-4.7h-24zm33.3 0l1.8 4.7h6.8l1.6-4.7h-10.2zm19.3 0v4.7h24.3v-4.7h-24.3zm-148.4 9.2v4.7h33.7v-4.7h-33.7zm38.1 0v4.7h36.6c6.5 0 11.4-4.7 11.4-4.7h-48zm57.7 0v4.7h24v-4.7h-24zm36.6 0l1.7 4.7h.3l1.7-4.7h-3.7zm16 0v4.7h24.3v-4.7h-24.3z" fill="#aab5d9"/></svg>

<?xml version="1.0" encoding="utf-8"?>
<!-- Generator: Adobe Illustrator 19.1.0, SVG Export Plug-In . SVG Version: 6.00 Build 0)  -->
<svg version="1.1" id="Layer_1" xmlns="http://www.w3.org/2000/svg" xmlns:xlink="http://www.w3.org/1999/xlink" x="0px" y="0px"
	 width="173px" height="69.2px" viewBox="280.5 362.2 173 69.2" style="enable-background:new 280.5 362.2 173 69.2;"
	 xml:space="preserve">
<style type="text/css">
	.st0{fill:#AAB5D9;}
</style>
<path class="st0" d="M280.5,362.2v4.7h33.7v-4.7H280.5z M318.9,362.2v4.7h48c0,0-4.9-4.7-11.4-4.7H318.9z M376.3,362.2v4.7h29
	l-1.7-4.7H376.3z M426.2,362.2l-1.7,4.7h28.8v-4.7H426.2z M280.5,371.4v4.7h33.7v-4.7H280.5z M318.9,371.5v4.7h53.6
	c0,0-0.6-3.6-1.7-4.7H318.9z M376.3,371.5v4.7h32.2l-1.6-4.7H376.3z M422.7,371.5l-1.6,4.7h32.1v-4.7H422.7z M290.2,380.7v4.7h14.6
	v-4.7H290.2z M328.6,380.7v4.7h14.6v-4.7H328.6z M357.4,380.7v4.7H372c0,0,0.9-2.5,0.9-4.7H357.4z M386,380.7v4.7h25.9l-1.7-4.7H386
	z M419.6,380.7l-1.7,4.7h26v-4.7H419.6z M290.2,389.9v4.7h14.6v-4.7H290.2z M328.6,389.9v4.7h37.2c0,0,3.1-2.4,4.1-4.7H328.6z
	 M386,389.9v4.7h14.6V392l0.9,2.6h26.7l1-2.6v2.6h14.6v-4.7h-27.4l-1.5,4l-1.5-4H386z M290.2,399.1v4.7h14.6v-4.7H290.2z
	 M328.6,399.1v4.7H370c-1-2.3-4.1-4.7-4.1-4.7H328.6z M386,399.1v4.7h14.6v-4.7H386z M403.3,399.1l1.8,4.7h20l1.7-4.7H403.3z
	 M429.2,399.1v4.7h14.6v-4.7H429.2z M290.2,408.3v4.7h14.6v-4.7H290.2z M328.6,408.3v4.7h14.6v-4.7H328.6z M357.4,408.3v4.7h15.5
	c0-2.2-0.9-4.7-0.9-4.7H357.4z M386,408.3v4.7h14.6v-4.7H386z M406.6,408.3l1.7,4.7h13.4l1.7-4.7H406.6z M429.2,408.3v4.7h14.6v-4.7
	H429.2z M280.8,417.5v4.7h33.7v-4.7H280.8z M318.9,417.5v4.7h51.8c1.1-1.1,1.7-4.7,1.7-4.7H318.9z M376.6,417.5v4.7h24v-4.7H376.6z
	 M409.9,417.5l1.8,4.7h6.8l1.6-4.7H409.9z M429.2,417.5v4.7h24.3v-4.7H429.2z M280.8,426.7v4.7h33.7v-4.7H280.8z M318.9,426.7v4.7
	h36.6c6.5,0,11.4-4.7,11.4-4.7H318.9z M376.6,426.7v4.7h24v-4.7H376.6z M413.2,426.7l1.7,4.7l0.3,0l1.7-4.7H413.2z M429.2,426.7v4.7
	h24.3v-4.7H429.2z"/>
</svg>
